X: 30740
T: Oró A Bhuachaillín
R: slide
M: 12/8
K: Dmajor
|:e|fff f2 f g2 g gfe|f2 f fgf e2 c B2 A|
fff f2 f g2 g gfe|f2 f efe d3 d2:|
|:B|A2 G FED F2 G A2 A|d2 d cBA B2 E E2 F|
A2 G FED F2 G A2 d|c2 B ABc d3 d2:|

